X:566
T:Nun te pares a mio puerta (MQ 033)
C:Tradicional
S:Msica Tradicional Asturiana, (C) Tello & Tito. Asturies, 2001.
S:http://pagina.de/MusTradAst <telloytito@asturies.org>
N:Pieza muy apropiada para practicar las notas agudas (requintos) de la gaita incluido el Mib agudo.
N:Esta cancin est tambin armonizada para voz y piano y es frecuente escucharla en el repertorio de algunos tenores importantes.
N:Joaqun Pixn la tiene grabada en un disco acompaado por la Sinfnica de Londres.
A:Asturies
Z:Manolo Quirs 033
M:3/4
L:1/8
Q:1/4=90
K:Eb
|: z B/B/ ee ff|d{e}d/c/ B4|z B/B/ ee ff|d{e}d/c/ B2 B2|
d{c}B/A/ FFBB|A{GA}G/F/ E4|
   z B/B/ ee ff|d{e}d/c/ B4|z B/B/ ee ff|d{e}d/c/ B2 B2|
d{c}B/A/ FFBB|A{GA}G/F/ E4 :|
